public/assets/img/icon/service-icon_2-1.svg

<svg width="54" height="55" viewBox="0 0 54 55" fill="none" xmlns="http://www.w3.org/2000/svg">
<path d="M42.7891 18.0163C42.9679 18.195 43.2016 18.284 43.4353 18.284C43.6691 18.284 43.9032 18.1946 44.082 18.0163L50.4509 11.6473C52.2754 9.82241 52.2754 6.85278 50.4509 5.02787C48.626 3.20254 45.656 3.20338 43.8315 5.02787L43.4353 5.42315L43.0401 5.02787C41.2143 3.20296 38.2455 3.20296 36.4206 5.02787C35.5365 5.912 35.0493 7.08735 35.0493 8.33739C35.0493 9.58743 35.5365 10.7632 36.4206 11.6469L42.7891 18.0163ZM37.7135 6.32071C38.2699 5.7643 39 5.48693 39.7301 5.48693C40.4603 5.48693 41.1912 5.76472 41.7472 6.32071L42.7891 7.36304C42.9608 7.53424 43.1932 7.63075 43.4353 7.63075C43.6779 7.63075 43.9104 7.53424 44.082 7.36304L45.1243 6.32071C46.2371 5.20747 48.0461 5.20873 49.1581 6.32071C50.2701 7.43269 50.2701 9.2425 49.1581 10.3545L43.4353 16.0768L37.7135 10.3545C37.1747 9.8157 36.8776 9.09899 36.8776 8.33781C36.878 7.57578 37.1747 6.85908 37.7135 6.32071Z" fill="#F41E1E"/>
<path d="M52.0081 53.0291C44.1936 53.896 37.9963 50.4358 37.9342 50.401C37.7239 50.281 37.4747 50.2487 37.241 50.3129C37.1424 50.3393 27.3128 52.9741 19.3959 51.2167C14.4604 50.1194 9.80518 46.6429 6.40587 44.1047C5.94932 43.7639 5.5167 43.4404 5.11051 43.1437C4.55578 42.738 3.67374 42.4006 2.89619 42.1027C2.54707 41.9692 2.06871 41.7859 1.9659 41.7217C1.87694 41.652 1.82827 41.5496 1.82827 41.4325V39.3135C1.87233 37.6367 8.90258 11.8357 9.99275 8.55349C10.0196 8.51488 10.1245 8.43893 10.2017 8.40243L24.1145 2.04776L28.6124 7.9035C28.8344 8.20689 28.8134 8.63112 28.5633 8.911L24.1187 13.8935C23.8279 14.22 23.3382 14.2557 23.0344 14.0018L21.2372 12.3447C21.0266 12.1509 20.727 12.0867 20.4462 12.1383C20.1647 12.1886 19.9129 12.3892 19.7828 12.6443C19.6326 12.9402 18.2718 13.3027 16.8837 13.3132L16.4313 13.2675C16.0688 13.2242 15.7172 13.4135 15.5401 13.7328C15.3622 14.0521 15.3924 14.4466 15.6156 14.7361C16.0017 15.235 16.3025 15.6358 16.4729 15.8657L17.3625 30.9874C16.8111 33.135 16.3059 33.7452 16.1804 33.8673C15.8099 33.9843 15.5409 34.3305 15.5409 34.7392C15.5409 35.244 15.9505 35.6536 16.4553 35.6536C17.4921 35.6536 18.3733 34.2911 19.0808 31.6311C26.3523 26.1904 32.6982 31.3252 33.1959 31.7478C35.5054 34.0658 35.6485 35.6053 35.6531 35.6737C35.664 36.1689 36.069 36.5675 36.5675 36.5675C37.0723 36.5675 37.4818 36.1584 37.4818 35.6536C37.4818 35.4434 37.4055 33.6394 35.0392 31.0332C37.2708 28.2897 39.8115 26.7095 42.61 26.3654C47.4347 25.7712 51.4903 29.0157 51.531 29.048C51.9229 29.3669 52.4978 29.3081 52.8167 28.9171C53.1356 28.5264 53.0781 27.9515 52.6879 27.6322C52.4991 27.4782 48.0096 23.8666 42.4052 24.5484C39.1292 24.9458 36.1886 26.7174 33.6537 29.8184C31.5963 28.4194 25.6973 25.253 19.1001 29.3942L18.2819 15.4877C18.2735 15.3374 18.2273 15.1918 18.1488 15.0638C18.9671 14.9669 19.9414 14.7533 20.6481 14.2884L21.8259 15.3739C22.9224 16.2942 24.5283 16.1796 25.4825 15.1113L29.9271 10.1283C30.747 9.20977 30.8154 7.82084 30.0756 6.80789L25.1208 0.35712C24.8623 0.0201682 24.4049 -0.0943871 24.0159 0.082691L9.45312 6.73445C9.3008 6.80117 8.52829 7.17505 8.27442 7.93875C7.75661 9.49301 0 37.1554 0 39.3105V41.433C0 42.114 0.3059 42.7438 0.838394 43.1614C1.10485 43.3699 1.50307 43.5277 2.24285 43.8105C2.8471 44.0421 3.67416 44.3581 4.03126 44.6195C4.43325 44.9133 4.86042 45.2326 5.31193 45.57C8.84384 48.2077 13.6808 51.8197 18.9998 53.0018C26.5718 54.6845 35.4605 52.6502 37.3656 52.1701C38.6379 52.8277 43.3057 55 49.4166 55C50.3183 55 51.252 54.953 52.2099 54.846C52.7118 54.7906 53.0731 54.3383 53.0177 53.8368C52.9615 53.3341 52.5079 52.9699 52.0081 53.0291Z" fill="#F41E1E"/>
<path d="M47.5325 41.952C47.4821 41.4946 47.0948 41.1388 46.6236 41.1388C46.1188 41.1388 45.7092 41.5484 45.7092 42.0532C45.7092 42.6637 46.1603 44.7311 51.9586 45.6971C52.0094 45.7055 52.0601 45.7097 52.1097 45.7097C52.5486 45.7097 52.9359 45.3929 53.0106 44.946C53.0932 44.4479 52.7567 43.9771 52.259 43.8936C48.2043 43.218 47.5866 42.0737 47.5325 41.952Z" fill="#F41E1E"/>
<path d="M29.977 46.6442C18.0032 49.2089 12.8793 41.0163 12.6674 40.6667C12.406 40.235 11.8458 40.0961 11.414 40.3554C10.9809 40.6151 10.8408 41.1766 11.1005 41.6096C11.161 41.7099 12.6158 44.0979 15.7264 46.1322C17.8698 47.5333 21.1382 48.9609 25.5588 48.9609C27.0313 48.9609 28.6313 48.8027 30.3597 48.4326C30.8536 48.3268 31.1683 47.8405 31.0625 47.347C30.9564 46.8536 30.4709 46.5376 29.977 46.6442Z" fill="#F41E1E"/>
</svg>

<?xml version="1.0" encoding="UTF-8"?>
<svg id="Camada_1" data-name="Camada 1" xmlns="http://www.w3.org/2000/svg" viewBox="0 0 53.02 55">
  <defs>
    <style>
      .cls-1 {
        fill: #f1c40f;
      }
    </style>
  </defs>
  <path class="cls-1" d="M42.79,18.02c.18,.18,.41,.27,.65,.27s.47-.09,.65-.27l6.37-6.37c1.82-1.82,1.82-4.79,0-6.62-1.82-1.83-4.79-1.82-6.62,0l-.4,.4-.4-.4c-1.83-1.82-4.79-1.82-6.62,0-.88,.88-1.37,2.06-1.37,3.31s.49,2.43,1.37,3.31l6.37,6.37Zm-5.08-11.7c.56-.56,1.29-.83,2.02-.83s1.46,.28,2.02,.83l1.04,1.04c.17,.17,.4,.27,.65,.27s.48-.1,.65-.27l1.04-1.04c1.11-1.11,2.92-1.11,4.03,0s1.11,2.92,0,4.03l-5.72,5.72-5.72-5.72c-.54-.54-.84-1.26-.84-2.02,0-.76,.3-1.48,.84-2.02Z"/>
  <path class="cls-1" d="M52.01,53.03c-7.81,.87-14.01-2.59-14.07-2.63-.21-.12-.46-.15-.69-.09-.1,.03-9.93,2.66-17.85,.9-4.94-1.1-9.59-4.57-12.99-7.11-.46-.34-.89-.66-1.3-.96-.55-.41-1.44-.74-2.21-1.04-.35-.13-.83-.32-.93-.38-.09-.07-.14-.17-.14-.29v-2.12c.04-1.68,7.07-27.48,8.16-30.76,.03-.04,.13-.11,.21-.15L24.11,2.05l4.5,5.86c.22,.3,.2,.73-.05,1.01l-4.44,4.98c-.29,.33-.78,.36-1.08,.11l-1.8-1.66c-.21-.19-.51-.26-.79-.21-.28,.05-.53,.25-.66,.51-.15,.3-1.51,.66-2.9,.67l-.45-.05c-.36-.04-.71,.15-.89,.47-.18,.32-.15,.71,.08,1,.39,.5,.69,.9,.86,1.13l.89,15.12c-.55,2.15-1.06,2.76-1.18,2.88-.37,.12-.64,.46-.64,.87,0,.5,.41,.91,.91,.91,1.04,0,1.92-1.36,2.63-4.02,7.27-5.44,13.62-.31,14.12,.12,2.31,2.32,2.45,3.86,2.46,3.93,.01,.5,.42,.89,.91,.89s.91-.41,.91-.91c0-.21-.08-2.01-2.44-4.62,2.23-2.74,4.77-4.32,7.57-4.67,4.82-.59,8.88,2.65,8.92,2.68,.39,.32,.97,.26,1.29-.13,.32-.39,.26-.97-.13-1.28-.19-.15-4.68-3.77-10.28-3.08-3.28,.4-6.22,2.17-8.75,5.27-2.06-1.4-7.96-4.57-14.55-.42l-.82-13.91c0-.15-.05-.3-.13-.42,.82-.1,1.79-.31,2.5-.78l1.18,1.09c1.1,.92,2.7,.81,3.66-.26l4.44-4.98c.82-.92,.89-2.31,.15-3.32L25.12,.36c-.26-.34-.72-.45-1.1-.27L9.45,6.73c-.15,.07-.92,.44-1.18,1.2C7.76,9.49,0,37.16,0,39.31v2.12c0,.68,.31,1.31,.84,1.73,.27,.21,.66,.37,1.4,.65,.6,.23,1.43,.55,1.79,.81,.4,.29,.83,.61,1.28,.95,3.53,2.64,8.37,6.25,13.69,7.43,7.57,1.68,16.46-.35,18.37-.83,1.27,.66,5.94,2.83,12.05,2.83,.9,0,1.84-.05,2.79-.15,.5-.06,.86-.51,.81-1.01-.06-.5-.51-.87-1.01-.81Z"/>
  <path class="cls-1" d="M47.53,41.95c-.05-.46-.44-.81-.91-.81-.5,0-.91,.41-.91,.91,0,.61,.45,2.68,6.25,3.64,.05,0,.1,.01,.15,.01,.44,0,.83-.32,.9-.76,.08-.5-.25-.97-.75-1.05-4.05-.68-4.67-1.82-4.73-1.94Z"/>
  <path class="cls-1" d="M29.98,46.64c-11.97,2.56-17.1-5.63-17.31-5.98-.26-.43-.82-.57-1.25-.31-.43,.26-.57,.82-.31,1.25,.06,.1,1.52,2.49,4.63,4.52,2.14,1.4,5.41,2.83,9.83,2.83,1.47,0,3.07-.16,4.8-.53,.49-.11,.81-.59,.7-1.09-.11-.49-.59-.81-1.09-.7Z"/>
</svg>
